img/fa/home-light-white.svg

<svg viewBox="0 0 512 512" xmlns="http://www.w3.org/2000/svg"><path d="m509.8 227.5-61.8-49.7v-76c0-3.3-2.7-6-6-6h-20c-3.3 0-6 2.7-6 6v50.1l-139.9-112.8c-11.7-9.5-28.5-9.5-40.2 0l-233.7 188.4c-2.6 2.1-3 5.9-.9 8.4l12.6 15.6c2.1 2.6 5.9 3 8.5.9l41.6-33.5v229c0 17.7 14.3 32 32 32h116c6.6 0 12-5.4 12-12v-132.1l64 .3v132.2c0 6.6 5.4 12 12 12l116-.3c17.7 0 32-14.3 32-32v-229l41.6 33.5c2.6 2.1 6.4 1.7 8.5-.9l12.6-15.6c2.1-2.6 1.6-6.4-.9-8.5zm-93.8 220.5-96 .3v-132.3c0-6.6-5.4-12-12-12l-104-.3c-6.6 0-12 5.4-12 12v132.3h-96v-254.9l156.2-126c2.2-1.8 5.3-1.8 7.5 0l156.2 126v254.9z" fill="#fff"/></svg>

<?xml version="1.0" encoding="UTF-8" standalone="no"?>
<svg
   xmlns:dc="http://purl.org/dc/elements/1.1/"
   xmlns:cc="http://creativecommons.org/ns#"
   xmlns:rdf="http://www.w3.org/1999/02/22-rdf-syntax-ns#"
   xmlns:svg="http://www.w3.org/2000/svg"
   xmlns="http://www.w3.org/2000/svg"
   xmlns:sodipodi="http://sodipodi.sourceforge.net/DTD/sodipodi-0.dtd"
   xmlns:inkscape="http://www.inkscape.org/namespaces/inkscape"
   aria-hidden="true"
   data-prefix="fal"
   data-icon="home"
   role="img"
   viewBox="0 0 512 512"
   class="svg-inline--fa fa-home fa-w-16 fa-7x"
   version="1.1"
   id="svg911"
   sodipodi:docname="home-light-white.svg"
   inkscape:version="0.92.4 (5da689c313, 2019-01-14)">
  <metadata
     id="metadata917">
    <rdf:RDF>
      <cc:Work
         rdf:about="">
        <dc:format>image/svg+xml</dc:format>
        <dc:type
           rdf:resource="http://purl.org/dc/dcmitype/StillImage" />
        <dc:title></dc:title>
      </cc:Work>
    </rdf:RDF>
  </metadata>
  <defs
     id="defs915" />
  <sodipodi:namedview
     pagecolor="#ffffff"
     bordercolor="#666666"
     borderopacity="1"
     objecttolerance="10"
     gridtolerance="10"
     guidetolerance="10"
     inkscape:pageopacity="0"
     inkscape:pageshadow="2"
     inkscape:window-width="775"
     inkscape:window-height="1016"
     id="namedview913"
     showgrid="false"
     inkscape:zoom="0.75390625"
     inkscape:cx="256"
     inkscape:cy="256"
     inkscape:window-x="70"
     inkscape:window-y="27"
     inkscape:window-maximized="0"
     inkscape:current-layer="svg911" />
  <path
     fill="currentColor"
     d="M509.8 227.5L448 177.8v-76c0-3.3-2.7-6-6-6h-20c-3.3 0-6 2.7-6 6v50.1L276.1 39.1c-11.7-9.5-28.5-9.5-40.2 0L2.2 227.5c-2.6 2.1-3 5.9-.9 8.4l12.6 15.6c2.1 2.6 5.9 3 8.5.9L64 218.9v229c0 17.7 14.3 32 32 32h116c6.6 0 12-5.4 12-12V335.8l64 .3v132.2c0 6.6 5.4 12 12 12l116-.3c17.7 0 32-14.3 32-32V219l41.6 33.5c2.6 2.1 6.4 1.7 8.5-.9l12.6-15.6c2.1-2.6 1.6-6.4-.9-8.5zM416 448l-96 .3V316c0-6.6-5.4-12-12-12l-104-.3c-6.6 0-12 5.4-12 12V448H96V193.1l156.2-126c2.2-1.8 5.3-1.8 7.5 0l156.2 126V448z"
     class=""
     id="path909"
     style="fill:#ffffff;fill-opacity:1" />
</svg>
